Numix/16/status/indicator-keyboard-Bn-2.svg

<?xml version="1.0" encoding="UTF-8" standalone="no"?>
<svg
   xmlns:dc="http://purl.org/dc/elements/1.1/"
   xmlns:cc="http://creativecommons.org/ns#"
   xmlns:rdf="http://www.w3.org/1999/02/22-rdf-syntax-ns#"
   xmlns:svg="http://www.w3.org/2000/svg"
   xmlns="http://www.w3.org/2000/svg"
   xmlns:sodipodi="http://sodipodi.sourceforge.net/DTD/sodipodi-0.dtd"
   xmlns:inkscape="http://www.inkscape.org/namespaces/inkscape"
   viewBox="0 0 16 16"
   id="svg2"
   version="1.1"
   inkscape:version="0.91 r13725"
   sodipodi:docname="indicator-keyboard-Bn-2.svg">
  <metadata
     id="metadata14">
    <rdf:RDF>
      <cc:Work
         rdf:about="">
        <dc:format>image/svg+xml</dc:format>
        <dc:type
           rdf:resource="http://purl.org/dc/dcmitype/StillImage" />
      </cc:Work>
    </rdf:RDF>
  </metadata>
  <defs
     id="defs12" />
  <sodipodi:namedview
     pagecolor="#ffffff"
     bordercolor="#666666"
     borderopacity="1"
     objecttolerance="10"
     gridtolerance="10"
     guidetolerance="10"
     inkscape:pageopacity="0"
     inkscape:pageshadow="2"
     inkscape:window-width="640"
     inkscape:window-height="480"
     id="namedview10"
     showgrid="false"
     inkscape:zoom="14.75"
     inkscape:cx="8"
     inkscape:cy="8"
     inkscape:window-x="65"
     inkscape:window-y="24"
     inkscape:window-maximized="0"
     inkscape:current-layer="svg2" />
  <path
     style="fill:#ececec;fill-opacity:1"
     d="M 1.5996094 0 C 0.71320937 2.9605947e-16 0 0.71320937 0 1.5996094 L 0 14.400391 C 2.9605947e-16 15.286791 0.71320937 16 1.5996094 16 L 14.400391 16 C 15.286791 16 16 15.286791 16 14.400391 L 16 1.5996094 C 16 0.71320937 15.286791 0 14.400391 0 L 1.5996094 0 z M 3.1621094 4.8046875 C 3.4981094 4.8046875 3.8152344 4.8327187 4.1152344 4.8867188 C 4.4212344 4.9407187 4.6880156 5.03025 4.9160156 5.15625 C 5.1440156 5.28225 5.3250312 5.4501562 5.4570312 5.6601562 C 5.5950313 5.8641563 5.6640625 6.1197812 5.6640625 6.4257812 C 5.6640625 6.7617812 5.5763438 7.0490625 5.4023438 7.2890625 C 5.2343437 7.5230625 5.00675 7.6853906 4.71875 7.7753906 C 4.89875 7.8173906 5.0628906 7.8770781 5.2128906 7.9550781 C 5.3628906 8.0330781 5.495375 8.1357187 5.609375 8.2617188 C 5.723375 8.3817188 5.8110937 8.5309375 5.8710938 8.7109375 C 5.9370937 8.8849375 5.96875 9.0957969 5.96875 9.3417969 C 5.96875 9.9297971 5.7355781 10.379406 5.2675781 10.691406 C 4.7995781 10.997406 4.0756563 11.150391 3.0976562 11.150391 C 2.9956562 11.150391 2.8762813 11.144813 2.7382812 11.132812 C 2.6062813 11.126813 2.4682187 11.113703 2.3242188 11.095703 C 2.1862187 11.083703 2.0537344 11.068781 1.9277344 11.050781 C 1.8017344 11.026781 1.6954687 11.002516 1.6054688 10.978516 L 1.6054688 4.9765625 C 1.7134687 4.9465625 1.8328438 4.9222969 1.9648438 4.9042969 C 2.0968438 4.8802969 2.2311406 4.8616094 2.3691406 4.8496094 C 2.5131406 4.8316094 2.6512031 4.8204531 2.7832031 4.8144531 C 2.9212031 4.8084531 3.0481094 4.8046875 3.1621094 4.8046875 z M 3.1621094 5.3261719 C 2.9401094 5.3261719 2.74975 5.3337031 2.59375 5.3457031 C 2.44375 5.3577031 2.3187969 5.372625 2.2167969 5.390625 L 2.2167969 7.5859375 L 3.4042969 7.5859375 C 3.6262969 7.5859375 3.8371563 7.5710156 4.0351562 7.5410156 C 4.2331562 7.5050156 4.402875 7.4453281 4.546875 7.3613281 C 4.696875 7.2713281 4.8144375 7.1537656 4.8984375 7.0097656 C 4.9824375 6.8597656 5.0253906 6.6713594 5.0253906 6.4433594 C 5.0253906 6.2393594 4.9786719 6.0676875 4.8886719 5.9296875 C 4.7986719 5.7856875 4.6699531 5.668125 4.5019531 5.578125 C 4.3399531 5.488125 4.1459687 5.426625 3.9179688 5.390625 C 3.6899687 5.348625 3.4381094 5.3261719 3.1621094 5.3261719 z M 9.0273438 6.3535156 C 9.3813437 6.3535156 9.6761563 6.4038594 9.9101562 6.5058594 C 10.150156 6.6078594 10.338563 6.7552656 10.476562 6.9472656 C 10.620563 7.1332656 10.723203 7.3570938 10.783203 7.6210938 C 10.843203 7.8850938 10.873047 8.1761406 10.873047 8.4941406 L 10.873047 11.095703 L 10.289062 11.095703 L 10.289062 8.6835938 C 10.289062 8.3535938 10.264797 8.0756562 10.216797 7.8476562 C 10.174797 7.6196563 10.100187 7.4330625 9.9921875 7.2890625 C 9.8901875 7.1450625 9.752125 7.0424219 9.578125 6.9824219 C 9.410125 6.9164219 9.1955 6.8847656 8.9375 6.8847656 C 8.6615 6.8847656 8.42275 6.8996875 8.21875 6.9296875 C 8.02075 6.9596875 7.8920312 6.9857656 7.8320312 7.0097656 L 7.8320312 11.095703 L 7.2460938 11.095703 L 7.2460938 6.6054688 C 7.4200937 6.5574688 7.6552188 6.5033594 7.9492188 6.4433594 C 8.2432188 6.3833594 8.6013437 6.3535156 9.0273438 6.3535156 z M 2.2167969 8.1074219 L 2.2167969 10.564453 C 2.3067969 10.576453 2.4410937 10.591375 2.6210938 10.609375 C 2.8010938 10.621375 2.9839219 10.628906 3.1699219 10.628906 C 3.4459219 10.628906 3.7127031 10.610219 3.9707031 10.574219 C 4.2347031 10.538219 4.4660625 10.472953 4.6640625 10.376953 C 4.8620625 10.280953 5.020625 10.148469 5.140625 9.9804688 C 5.260625 9.8124687 5.3222656 9.5960312 5.3222656 9.3320312 C 5.3222656 9.0920312 5.2793125 8.8942812 5.1953125 8.7382812 C 5.1113125 8.5762813 4.9919375 8.449375 4.8359375 8.359375 C 4.6799375 8.263375 4.4877656 8.1981094 4.2597656 8.1621094 C 4.0377656 8.1261094 3.7877187 8.1074219 3.5117188 8.1074219 L 2.2167969 8.1074219 z M 13.068359 8.7539062 C 13.462259 8.7539062 13.758131 8.851875 13.957031 9.046875 C 14.155931 9.237975 14.255859 9.5044563 14.255859 9.8476562 C 14.255859 9.9997563 14.228428 10.14475 14.173828 10.28125 C 14.119228 10.41385 14.044772 10.543169 13.951172 10.667969 C 13.861472 10.792769 13.757625 10.912297 13.640625 11.029297 C 13.523625 11.146297 13.404103 11.263859 13.283203 11.380859 C 13.181803 11.478359 13.083828 11.578288 12.986328 11.679688 C 12.892728 11.777188 12.806516 11.877116 12.728516 11.978516 C 12.654416 12.076016 12.593675 12.172031 12.546875 12.269531 C 12.503975 12.363131 12.482422 12.457181 12.482422 12.550781 L 12.482422 12.5625 L 14.394531 12.5625 L 14.394531 12.896484 L 12.060547 12.896484 C 12.060547 12.888684 12.058621 12.874969 12.054688 12.855469 L 12.054688 12.755859 C 12.054688 12.572559 12.087997 12.402094 12.154297 12.246094 C 12.220597 12.086194 12.30485 11.937275 12.40625 11.796875 C 12.51155 11.656475 12.627153 11.525197 12.751953 11.404297 C 12.880653 11.283397 13.004094 11.165834 13.121094 11.052734 C 13.218594 10.959134 13.308731 10.869003 13.394531 10.783203 C 13.484231 10.693503 13.562606 10.603366 13.628906 10.509766 C 13.695206 10.416166 13.748109 10.316237 13.787109 10.210938 C 13.826109 10.105638 13.845703 9.9900344 13.845703 9.8652344 C 13.845703 9.5922344 13.771247 9.39825 13.623047 9.28125 C 13.478747 9.16035 13.296519 9.0996094 13.074219 9.0996094 C 12.949419 9.0996094 12.837734 9.1152844 12.740234 9.1464844 C 12.642734 9.1776844 12.556522 9.2149125 12.482422 9.2578125 C 12.412222 9.2968125 12.351481 9.3379594 12.300781 9.3808594 C 12.250081 9.4237594 12.212853 9.4570688 12.189453 9.4804688 L 11.990234 9.2167969 C 12.013634 9.1894969 12.054781 9.1503094 12.113281 9.0996094 C 12.175681 9.0450094 12.252097 8.9921062 12.341797 8.9414062 C 12.435397 8.8907063 12.543162 8.8476 12.664062 8.8125 C 12.784962 8.7735 12.920159 8.7539063 13.068359 8.7539062 z "
     id="path4" />
</svg>

<svg xmlns="http://www.w3.org/2000/svg" viewBox="0 0 16 16">
 <path d="m 1.6 0 c -0.886 0 -1.6 0.713 -1.6 1.6 l 0 12.801 c 0 0.886 0.713 1.6 1.6 1.6 l 12.801 0 c 0.886 0 1.6 -0.713 1.6 -1.6 l 0 -12.801 c 0 -0.886 -0.713 -1.6 -1.6 -1.6 l -12.801 0 z m 1.562 4.805 c 0.336 0 0.653 0.028 0.953 0.082 c 0.306 0.054 0.573 0.144 0.801 0.27 c 0.228 0.126 0.409 0.294 0.541 0.504 c 0.138 0.204 0.207 0.46 0.207 0.766 c 0 0.336 -0.088 0.623 -0.262 0.863 c -0.168 0.234 -0.396 0.396 -0.684 0.486 c 0.18 0.042 0.344 0.102 0.494 0.18 c 0.15 0.078 0.282 0.181 0.396 0.307 c 0.114 0.12 0.202 0.269 0.262 0.449 c 0.066 0.174 0.098 0.385 0.098 0.631 c 0 0.588 -0.233 1.038 -0.701 1.35 c -0.468 0.306 -1.192 0.459 -2.17 0.459 c -0.102 0 -0.221 -0.006 -0.359 -0.018 c -0.132 -0.006 -0.27 -0.019 -0.414 -0.037 c -0.138 -0.012 -0.27 -0.027 -0.396 -0.045 c -0.126 -0.024 -0.232 -0.048 -0.322 -0.072 l 0 -6 c 0.108 -0.03 0.227 -0.054 0.359 -0.072 c 0.132 -0.024 0.266 -0.043 0.404 -0.055 c 0.144 -0.018 0.282 -0.029 0.414 -0.035 c 0.138 -0.006 0.265 -0.01 0.379 -0.01 z m 0 0.521 c -0.222 0 -0.412 0.008 -0.568 0.02 c -0.15 0.012 -0.275 0.027 -0.377 0.045 l 0 2.195 l 1.188 0 c 0.222 0 0.433 -0.015 0.631 -0.045 c 0.198 -0.036 0.368 -0.096 0.512 -0.18 c 0.15 -0.09 0.268 -0.208 0.352 -0.352 c 0.084 -0.15 0.127 -0.338 0.127 -0.566 c 0 -0.204 -0.047 -0.376 -0.137 -0.514 c -0.09 -0.144 -0.219 -0.262 -0.387 -0.352 c -0.162 -0.09 -0.356 -0.152 -0.584 -0.188 c -0.228 -0.042 -0.48 -0.064 -0.756 -0.064 z m 5.865 1.027 c 0.354 0 0.649 0.05 0.883 0.152 c 0.24 0.102 0.428 0.249 0.566 0.441 c 0.144 0.186 0.247 0.41 0.307 0.674 c 0.06 0.264 0.09 0.555 0.09 0.873 l 0 2.602 l -0.584 0 l 0 -2.412 c 0 -0.33 -0.024 -0.608 -0.072 -0.836 c -0.042 -0.228 -0.117 -0.415 -0.225 -0.559 c -0.102 -0.144 -0.24 -0.247 -0.414 -0.307 c -0.168 -0.066 -0.383 -0.098 -0.641 -0.098 c -0.276 0 -0.515 0.015 -0.719 0.045 c -0.198 0.03 -0.327 0.056 -0.387 0.08 l 0 4.086 l -0.586 0 l 0 -4.49 c 0.174 -0.048 0.409 -0.102 0.703 -0.162 c 0.294 -0.06 0.652 -0.09 1.078 -0.09 z m -6.811 1.754 l 0 2.457 c 0.09 0.012 0.224 0.027 0.404 0.045 c 0.18 0.012 0.363 0.02 0.549 0.02 c 0.276 0 0.543 -0.019 0.801 -0.055 c 0.264 -0.036 0.495 -0.101 0.693 -0.197 c 0.198 -0.096 0.357 -0.228 0.477 -0.396 c 0.12 -0.168 0.182 -0.384 0.182 -0.648 c 0 -0.24 -0.043 -0.438 -0.127 -0.594 c -0.084 -0.162 -0.203 -0.289 -0.359 -0.379 c -0.156 -0.096 -0.348 -0.161 -0.576 -0.197 c -0.222 -0.036 -0.472 -0.055 -0.748 -0.055 l -1.295 0 z m 10.852 0.646 c 0.394 0 0.69 0.098 0.889 0.293 c 0.199 0.191 0.299 0.458 0.299 0.801 c 0 0.152 -0.027 0.297 -0.082 0.434 c -0.055 0.133 -0.129 0.262 -0.223 0.387 c -0.09 0.125 -0.194 0.244 -0.311 0.361 c -0.117 0.117 -0.237 0.235 -0.357 0.352 c -0.101 0.098 -0.199 0.197 -0.297 0.299 c -0.094 0.098 -0.18 0.197 -0.258 0.299 c -0.074 0.097 -0.135 0.194 -0.182 0.291 c -0.043 0.094 -0.064 0.188 -0.064 0.281 l 0 0.012 l 1.912 0 l 0 0.334 l -2.334 0 c 0 -0.008 -0.002 -0.022 -0.006 -0.041 l 0 -0.1 c 0 -0.183 0.033 -0.354 0.1 -0.51 c 0.066 -0.16 0.151 -0.309 0.252 -0.449 c 0.105 -0.14 0.221 -0.272 0.346 -0.393 c 0.129 -0.121 0.252 -0.238 0.369 -0.352 c 0.098 -0.094 0.188 -0.184 0.273 -0.27 c 0.09 -0.09 0.168 -0.18 0.234 -0.273 c 0.066 -0.094 0.119 -0.194 0.158 -0.299 c 0.039 -0.105 0.059 -0.221 0.059 -0.346 c 0 -0.273 -0.074 -0.467 -0.223 -0.584 c -0.144 -0.121 -0.327 -0.182 -0.549 -0.182 c -0.125 0 -0.236 0.016 -0.334 0.047 c -0.097 0.031 -0.184 0.068 -0.258 0.111 c -0.07 0.039 -0.131 0.08 -0.182 0.123 c -0.051 0.043 -0.088 0.076 -0.111 0.1 l -0.199 -0.264 c 0.023 -0.027 0.065 -0.066 0.123 -0.117 c 0.062 -0.055 0.139 -0.108 0.229 -0.158 c 0.094 -0.051 0.201 -0.094 0.322 -0.129 c 0.121 -0.039 0.256 -0.059 0.404 -0.059 z" style="fill:#ececec;fill-opacity:1"/>
</svg>
